static/fa/svgs/regular/object-group.svg

<svg xmlns="http://www.w3.org/2000/svg" viewBox="0 0 576 512"><!--! Font Awesome Free 6.1.1 by @fontawesome - https://fontawesome.com License - https://fontawesome.com/license/free (Icons: CC BY 4.0, Fonts: SIL OFL 1.1, Code: MIT License) Copyright 2022 Fonticons, Inc.--><path d="M128 160c0-17.7 14.3-32 32-32h128c17.7 0 32 14.3 32 32v96c0 17.7-14.3 32-32 32H160c-17.7 0-32-14.3-32-32v-96zm160 160c35.3 0 64-28.7 64-64v-32h64c17.7 0 32 14.3 32 32v96c0 17.7-14.3 32-32 32H288c-17.7 0-32-14.3-32-32v-32h32zM48 115.8c-9.82-9.7-16-21.58-16-35.8 0-26.51 21.49-48 48-48 14.22 0 26.1 6.18 35.8 16h344.4c8.8-9.82 21.6-16 35.8-16 26.5 0 48 21.49 48 48 0 14.22-6.2 26.1-16 35.8v280.4c9.8 8.8 16 21.6 16 35.8 0 26.5-21.5 48-48 48-14.2 0-27-6.2-35.8-16H115.8c-9.7 9.8-21.58 16-35.8 16-26.51 0-48-21.5-48-48 0-14.2 6.18-27 16-35.8V115.8zm48 9.5v261.4c13.6 4.9 24.4 15.7 29.3 29.3h325.4c4.9-13.6 15.7-24.4 29.3-29.3V125.3c-13.6-4.9-24.4-15.7-29.3-29.3H125.3c-4.9 13.6-15.7 24.4-29.3 29.3z"/></svg>

<svg xmlns="http://www.w3.org/2000/svg" viewBox="0 0 576 512"><!--! Font Awesome Free 6.1.1 by @fontawesome - https://fontawesome.com License - https://fontawesome.com/license/free (Icons: CC BY 4.0, Fonts: SIL OFL 1.1, Code: MIT License) Copyright 2022 Fonticons, Inc. --><path d="M128 160C128 142.3 142.3 128 160 128H288C305.7 128 320 142.3 320 160V256C320 273.7 305.7 288 288 288H160C142.3 288 128 273.7 128 256V160zM288 320C323.3 320 352 291.3 352 256V224H416C433.7 224 448 238.3 448 256V352C448 369.7 433.7 384 416 384H288C270.3 384 256 369.7 256 352V320H288zM48 115.8C38.18 106.1 32 94.22 32 80C32 53.49 53.49 32 80 32C94.22 32 106.1 38.18 115.8 48H460.2C469 38.18 481.8 32 496 32C522.5 32 544 53.49 544 80C544 94.22 537.8 106.1 528 115.8V396.2C537.8 405 544 417.8 544 432C544 458.5 522.5 480 496 480C481.8 480 469 473.8 460.2 464H115.8C106.1 473.8 94.22 480 80 480C53.49 480 32 458.5 32 432C32 417.8 38.18 405 48 396.2V115.8zM96 125.3V386.7C109.6 391.6 120.4 402.4 125.3 416H450.7C455.6 402.4 466.4 391.6 480 386.7V125.3C466.4 120.4 455.6 109.6 450.7 96H125.3C120.4 109.6 109.6 120.4 96 125.3z"/></svg>
